X:90
T:Rondeau de M. Lalanne
R:rondeau
C:trad.
A:Landes
O:France
Z:S. Piron
M:6/8
L:1/8
Q:1/4=170
K:C
e|:c2cc2e|g2gg2e|d2dd2e|1fgfede:|2fedc3|
|:efgefg|efgg2f|1defdef|deff2d:|2defa2g|fedc2e||
